polaris-icons/icons/newicons/LabelPrinterMajor.svg

<svg width="20" height="20" viewBox="0 0 20 20" fill="none" xmlns="http://www.w3.org/2000/svg">
<path d="M13.5 7.25C14.0523 7.25 14.5 6.80228 14.5 6.25C14.5 5.69772 14.0523 5.25 13.5 5.25C12.9477 5.25 12.5 5.69772 12.5 6.25C12.5 6.80228 12.9477 7.25 13.5 7.25Z" fill="black"/>
<path d="M5.5 6.25C5.5 5.83579 5.83579 5.5 6.25 5.5H9.25C9.66421 5.5 10 5.83579 10 6.25C10 6.66421 9.66421 7 9.25 7H6.25C5.83579 7 5.5 6.66421 5.5 6.25Z" fill="black"/>
<path d="M9.25 10.5C8.83579 10.5 8.5 10.8358 8.5 11.25C8.5 11.6642 8.83579 12 9.25 12H10.75C11.1642 12 11.5 11.6642 11.5 11.25C11.5 10.8358 11.1642 10.5 10.75 10.5H9.25Z" fill="black"/>
<path d="M8.5 13.75C8.5 13.3358 8.83579 13 9.25 13H10.75C11.1642 13 11.5 13.3358 11.5 13.75C11.5 14.1642 11.1642 14.5 10.75 14.5H9.25C8.83579 14.5 8.5 14.1642 8.5 13.75Z" fill="black"/>
<path fill-rule="evenodd" clip-rule="evenodd" d="M6 3C4.34315 3 3 4.34315 3 6V11C3 12.6569 4.34315 14 6 14L6 15C6 16.1046 6.89543 17 8 17H12C13.1046 17 14 16.1046 14 15V14C15.6569 14 17 12.6569 17 11V6C17 4.34315 15.6569 3 14 3H6ZM14 12.5C14.8284 12.5 15.5 11.8284 15.5 11V6C15.5 5.17157 14.8284 4.5 14 4.5H6C5.17157 4.5 4.5 5.17157 4.5 6V11C4.5 11.8284 5.17157 12.5 6 12.5L6 10C6 8.89543 6.89543 8 8 8H12C13.1046 8 14 8.89543 14 10V12.5ZM7.5 10C7.5 9.72386 7.72386 9.5 8 9.5H12C12.2761 9.5 12.5 9.72386 12.5 10V15C12.5 15.2761 12.2761 15.5 12 15.5H8C7.72386 15.5 7.5 15.2761 7.5 15V10Z" fill="black"/>
</svg>

<svg viewBox="0 0 20 20" fill="none" xmlns="http://www.w3.org/2000/svg"><path d="M13.5 7.25a1 1 0 1 0 0-2 1 1 0 0 0 0 2Z" fill="#5C5F62"/><path d="M5.5 6.25a.75.75 0 0 1 .75-.75h3a.75.75 0 0 1 0 1.5h-3a.75.75 0 0 1-.75-.75Z" fill="#5C5F62"/><path d="M9.25 10.5a.75.75 0 0 0 0 1.5h1.5a.75.75 0 0 0 0-1.5h-1.5Z" fill="#5C5F62"/><path d="M8.5 13.75a.75.75 0 0 1 .75-.75h1.5a.75.75 0 0 1 0 1.5h-1.5a.75.75 0 0 1-.75-.75Z" fill="#5C5F62"/><path fill-rule="evenodd" clip-rule="evenodd" d="M6 3a3 3 0 0 0-3 3v5a3 3 0 0 0 3 3v1a2 2 0 0 0 2 2h4a2 2 0 0 0 2-2v-1a3 3 0 0 0 3-3v-5a3 3 0 0 0-3-3h-8Zm8 9.5a1.5 1.5 0 0 0 1.5-1.5v-5a1.5 1.5 0 0 0-1.5-1.5h-8a1.5 1.5 0 0 0-1.5 1.5v5a1.5 1.5 0 0 0 1.5 1.5v-2.5a2 2 0 0 1 2-2h4a2 2 0 0 1 2 2v2.5Zm-6.5-2.5a.5.5 0 0 1 .5-.5h4a.5.5 0 0 1 .5.5v5a.5.5 0 0 1-.5.5h-4a.5.5 0 0 1-.5-.5v-5Z" fill="#5C5F62"/></svg>
